ncols 82
nrows 86
xllcorner 4232063
yllcorner 3162220
cellsize 100
NODATA_value -9999
-9999 -9999 -9999 -9999 -9999 -9999 -9999 -9999 -9999 -9999 -9999 -9999 -9999 -9999 -9999 -9999 -9999 -9999 -9999 -9999 -9999 -9999 -9999 -9999 -9999 -9999 -9999 -9999 -9999 -9999 -9999 -9999 -9999 -9999 -9999 -9999 -9999 -9999 -9999 -9999 -9999 -9999 -9999 -9999 -9999 -9999 -9999 -9999 -9999 -9999 -9999 -9999 -9999 -9999 -9999 -9999 -9999 -9999 -9999 -9999 -9999 -9999 -9999 -9999 -9999 -9999 -9999 -9999 313.4 -9999 -9999 -9999 -9999 -9999 -9999 -9999 -9999 -9999 -9999 -9999 -9999 -9999 
-9999 -9999 -9999 -9999 -9999 -9999 -9999 -9999 -9999 -9999 -9999 -9999 -9999 -9999 -9999 -9999 -9999 -9999 -9999 -9999 -9999 -9999 -9999 -9999 -9999 -9999 -9999 -9999 -9999 -9999 -9999 -9999 -9999 -9999 -9999 -9999 -9999 -9999 -9999 -9999 -9999 -9999 -9999 -9999 -9999 -9999 -9999 -9999 -9999 -9999 -9999 -9999 -9999 -9999 -9999 -9999 -9999 -9999 -9999 -9999 -9999 -9999 -9999 -9999 -9999 -9999 -9999 309.3 309.5 310.8 -9999 -9999 316.7 316.3 -9999 -9999 -9999 -9999 -9999 -9999 -9999 -9999 
-9999 -9999 -9999 -9999 -9999 -9999 -9999 -9999 -9999 -9999 -9999 -9999 -9999 -9999 -9999 -9999 -9999 -9999 -9999 -9999 -9999 -9999 -9999 -9999 -9999 -9999 -9999 -9999 -9999 -9999 -9999 -9999 -9999 -9999 -9999 -9999 -9999 -9999 -9999 -9999 -9999 -9999 -9999 -9999 -9999 -9999 -9999 -9999 -9999 -9999 -9999 -9999 -9999 -9999 -9999 -9999 -9999 -9999 -9999 -9999 -9999 -9999 -9999 -9999 -9999 -9999 308.1 308.5 308.3 308.7 310.3 312.2 313.2 310.3 309.8 312.1 313.2 317.1 -9999 -9999 -9999 -9999 
-9999 -9999 -9999 -9999 -9999 -9999 -9999 -9999 -9999 -9999 -9999 -9999 -9999 -9999 -9999 -9999 -9999 -9999 -9999 -9999 -9999 -9999 -9999 -9999 -9999 -9999 -9999 -9999 -9999 -9999 -9999 -9999 -9999 -9999 -9999 -9999 -9999 -9999 -9999 -9999 -9999 -9999 -9999 -9999 -9999 -9999 255.1 257.4 260.4 263.2 265.3 268.2 270.3 271.6 273.7 280.6 280.4 284.8 289.1 -9999 -9999 -9999 -9999 -9999 -9999 304.6 305.3 305.7 307.0 307.1 307.5 306.3 305.7 304.8 306.4 312.4 309.6 310.2 311.6 312.9 -9999 -9999 
-9999 -9999 -9999 -9999 -9999 -9999 -9999 -9999 -9999 -9999 -9999 -9999 -9999 -9999 -9999 -9999 -9999 -9999 -9999 -9999 -9999 -9999 -9999 -9999 -9999 -9999 -9999 -9999 -9999 -9999 -9999 -9999 -9999 -9999 -9999 -9999 -9999 -9999 -9999 -9999 -9999 -9999 242.3 246.9 249.4 251.1 252.2 254.8 256.9 260.3 262.9 265.5 267.2 268.4 270.8 274.6 277.8 282.2 287.8 291.1 296.6 298.7 301.3 299.8 -9999 301.0 300.0 301.0 303.2 304.4 306.1 304.7 300.7 305.7 307.6 308.1 310.1 312.8 313.7 314.5 -9999 -9999 
-9999 -9999 -9999 -9999 -9999 -9999 -9999 -9999 -9999 -9999 -9999 -9999 -9999 -9999 -9999 -9999 -9999 -9999 -9999 -9999 -9999 -9999 -9999 -9999 -9999 -9999 -9999 -9999 -9999 -9999 -9999 -9999 172.6 188.6 203.6 -9999 -9999 -9999 -9999 -9999 -9999 236.9 236.1 243.3 242.4 244.0 246.3 249.9 254.1 258.1 260.2 261.9 262.9 264.8 267.0 269.1 275.1 278.8 283.9 287.8 291.4 294.6 297.6 297.9 298.5 297.7 295.5 297.9 295.0 293.9 295.3 305.1 307.4 305.5 307.5 309.9 312.6 314.8 315.7 316.9 318.2 -9999 
-9999 -9999 -9999 -9999 -9999 -9999 -9999 -9999 -9999 -9999 -9999 -9999 -9999 -9999 -9999 -9999 -9999 -9999 -9999 -9999 -9999 -9999 -9999 -9999 -9999 -9999 -9999 -9999 -9999 -9999 162.6 157.5 157.8 166.7 194.9 197.6 202.3 216.4 222.6 226.2 225.9 219.3 212.4 229.0 233.9 238.0 244.6 250.0 251.9 254.4 255.7 252.5 254.1 257.0 258.0 265.8 274.1 276.1 278.1 279.0 283.8 284.3 282.1 282.5 285.5 288.3 288.4 291.4 291.1 293.9 297.6 302.8 309.0 309.7 311.3 313.9 315.0 316.7 318.2 318.3 319.5 -9999 
-9999 -9999 -9999 -9999 -9999 -9999 -9999 -9999 -9999 -9999 -9999 -9999 -9999 -9999 -9999 -9999 -9999 -9999 -9999 -9999 -9999 -9999 -9999 -9999 -9999 -9999 -9999 -9999 -9999 188.9 172.3 162.9 158.2 158.6 167.9 171.4 178.9 198.7 205.1 204.3 195.6 191.8 205.1 226.2 232.0 240.1 245.3 245.4 246.8 247.8 243.3 233.2 235.8 244.6 254.0 264.4 270.7 270.1 271.7 273.3 273.4 272.1 271.9 275.5 279.0 283.3 287.5 290.4 294.2 298.0 300.8 308.2 315.6 311.0 313.0 315.9 321.7 322.3 318.6 319.0 -9999 -9999 
-9999 -9999 -9999 -9999 -9999 -9999 -9999 -9999 -9999 -9999 -9999 -9999 -9999 -9999 -9999 -9999 -9999 -9999 -9999 -9999 -9999 -9999 -9999 -9999 -9999 -9999 -9999 -9999 205.4 197.1 186.5 172.3 161.3 158.5 159.7 167.1 169.7 171.0 175.7 177.4 184.1 190.1 189.3 203.9 212.3 227.2 240.7 239.8 234.5 226.7 221.7 230.3 238.3 241.6 245.0 250.7 251.9 257.5 260.6 264.7 269.5 273.4 276.2 281.1 283.9 287.6 291.6 294.0 297.9 300.5 303.4 313.3 321.2 313.5 320.2 326.5 329.7 323.5 318.3 318.7 -9999 -9999 
-9999 -9999 -9999 -9999 -9999 -9999 -9999 -9999 -9999 -9999 -9999 -9999 -9999 -9999 -9999 -9999 -9999 -9999 -9999 -9999 -9999 -9999 -9999 -9999 -9999 -9999 -9999 213.3 211.3 203.6 193.7 181.3 165.6 159.4 161.4 179.1 191.6 192.2 194.9 202.3 214.5 220.3 213.4 202.6 198.3 201.5 210.3 210.4 209.2 220.3 235.2 250.1 254.7 257.6 259.2 261.1 265.9 269.4 273.2 275.7 278.7 281.4 283.9 287.1 289.3 291.6 295.7 297.7 301.4 303.4 305.9 308.7 311.8 313.4 319.2 323.5 324.2 316.8 316.1 317.4 317.6 -9999 
-9999 -9999 -9999 -9999 -9999 -9999 -9999 -9999 -9999 -9999 -9999 -9999 -9999 -9999 -9999 -9999 -9999 -9999 -9999 -9999 -9999 -9999 -9999 -9999 -9999 -9999 217.6 215.0 207.5 188.1 178.1 169.0 160.4 159.4 169.8 191.4 201.2 203.0 206.2 213.6 226.0 229.7 231.3 227.4 221.7 213.1 208.1 212.6 218.3 236.6 248.1 255.6 260.7 263.9 267.6 269.7 272.1 275.6 277.9 280.1 282.6 284.8 287.8 290.7 292.2 294.5 297.9 300.2 302.3 304.5 306.4 308.6 310.2 311.0 312.6 314.3 314.7 315.2 315.0 315.9 316.1 315.9 
-9999 -9999 -9999 -9999 -9999 -9999 -9999 -9999 -9999 -9999 -9999 -9999 -9999 -9999 -9999 -9999 -9999 -9999 -9999 -9999 -9999 -9999 -9999 -9999 222.3 221.7 217.1 202.8 182.8 169.0 164.7 161.9 160.2 161.0 177.5 193.6 203.4 205.5 206.0 210.1 223.3 231.2 236.5 238.2 238.2 236.9 233.2 234.5 234.6 243.1 253.4 261.1 264.7 268.1 271.2 273.6 276.2 279.5 280.9 281.9 284.7 287.5 289.3 292.2 294.3 297.1 299.4 301.0 302.5 304.0 305.4 307.4 308.3 308.4 310.1 310.7 311.4 312.5 313.3 313.9 315.2 315.4 
-9999 -9999 -9999 -9999 -9999 -9999 -9999 -9999 -9999 -9999 -9999 -9999 -9999 -9999 -9999 -9999 -9999 -9999 -9999 -9999 -9999 -9999 225.9 224.3 221.9 218.1 203.4 184.1 173.0 166.6 165.7 161.8 160.4 162.8 174.0 181.2 186.4 193.3 198.7 205.1 219.2 231.0 237.4 241.4 243.9 246.9 249.6 251.9 253.6 256.9 260.9 265.9 268.8 271.2 273.5 276.4 278.4 279.1 280.5 283.4 286.8 288.7 290.5 293.0 294.4 296.5 302.2 305.1 300.9 301.4 302.0 302.5 304.3 304.9 305.2 306.0 307.4 309.2 311.1 313.1 314.7 316.0 
-9999 -9999 -9999 -9999 -9999 -9999 -9999 -9999 -9999 -9999 -9999 -9999 -9999 -9999 -9999 -9999 -9999 -9999 -9999 -9999 -9999 226.9 225.3 222.4 218.0 209.9 190.3 176.6 169.6 165.4 163.4 160.4 161.1 161.3 169.5 188.0 196.7 201.5 206.2 209.6 221.4 233.0 239.2 242.1 245.3 249.4 253.8 256.6 259.3 262.0 264.7 267.9 270.0 272.5 275.2 276.0 276.5 278.3 281.0 283.6 286.7 288.5 289.8 292.0 293.4 294.7 303.7 311.1 297.6 298.2 299.1 299.3 300.2 300.0 301.6 303.5 306.2 309.9 312.0 313.9 316.4 316.8 
-9999 -9999 -9999 -9999 -9999 -9999 -9999 -9999 -9999 -9999 -9999 -9999 -9999 -9999 -9999 -9999 -9999 -9999 -9999 -9999 -9999 228.2 224.5 217.4 208.3 192.7 180.6 175.7 170.5 166.2 163.7 161.7 163.2 164.3 169.7 183.6 206.6 216.5 220.0 223.2 225.6 231.4 238.3 242.8 247.5 251.5 256.3 259.1 261.8 263.7 266.8 269.3 270.9 272.6 273.4 273.6 274.5 277.8 280.0 281.6 284.1 285.2 286.0 287.9 288.6 290.0 292.3 297.1 296.4 293.3 293.3 293.7 295.2 297.6 302.0 304.6 307.6 311.5 313.4 316.6 -9999 -9999 
-9999 -9999 -9999 -9999 -9999 -9999 -9999 -9999 -9999 -9999 -9999 -9999 -9999 -9999 -9999 -9999 -9999 -9999 -9999 -9999 -9999 227.7 220.9 207.7 197.9 187.4 192.0 184.9 175.8 171.1 167.7 162.3 163.5 165.4 171.8 183.2 205.6 223.5 226.9 229.1 233.3 234.4 238.0 245.2 249.5 252.9 257.7 260.1 262.0 264.4 267.0 269.8 270.3 270.2 270.5 271.4 272.2 276.3 277.3 278.8 280.4 281.3 282.1 283.2 284.2 285.5 286.5 288.1 292.9 288.5 289.7 293.7 296.3 299.9 302.9 305.9 311.2 319.0 315.4 317.2 -9999 -9999 
-9999 -9999 -9999 -9999 -9999 -9999 -9999 -9999 -9999 -9999 -9999 -9999 -9999 -9999 -9999 -9999 -9999 -9999 -9999 -9999 232.0 227.9 222.0 211.7 199.8 191.4 205.6 199.4 191.6 181.8 174.5 165.0 163.4 165.5 170.6 183.6 204.9 225.5 229.4 231.6 234.9 238.6 242.1 246.6 250.4 253.9 257.9 260.6 262.8 265.6 266.4 267.9 267.3 266.7 268.3 270.1 271.2 273.1 274.3 275.1 275.5 275.9 276.5 276.6 277.4 278.5 280.7 281.3 285.3 287.4 289.7 293.9 297.3 300.8 305.8 309.9 316.0 318.4 318.5 -9999 -9999 -9999 
-9999 -9999 -9999 -9999 -9999 -9999 -9999 -9999 -9999 -9999 -9999 -9999 -9999 -9999 -9999 -9999 -9999 -9999 -9999 238.1 235.4 231.8 226.4 214.4 199.1 203.1 215.2 211.6 209.3 196.7 184.3 169.6 163.3 164.2 167.8 177.7 197.6 222.7 230.6 234.4 238.5 240.8 244.7 248.2 251.3 254.7 258.5 261.0 262.6 264.8 265.0 263.1 260.0 256.9 258.5 261.7 261.2 263.1 263.3 264.6 266.7 267.4 266.2 269.1 271.7 275.1 279.3 282.0 285.3 287.6 290.4 294.9 303.1 308.3 308.8 310.6 314.6 317.0 -9999 -9999 -9999 -9999 
-9999 -9999 -9999 -9999 -9999 -9999 -9999 -9999 -9999 -9999 -9999 -9999 -9999 -9999 -9999 -9999 -9999 -9999 -9999 239.9 234.2 226.6 218.3 207.2 206.6 217.4 220.9 217.4 211.7 196.6 183.3 172.9 164.7 163.5 169.6 172.8 189.2 217.3 229.0 235.2 239.0 242.0 245.4 249.5 252.7 255.5 257.9 259.5 261.0 262.3 260.9 256.7 251.1 245.8 251.8 251.6 249.0 249.7 251.4 252.3 257.1 260.9 268.0 272.7 275.8 278.9 282.5 284.4 286.8 288.9 291.6 296.6 304.4 307.4 311.9 312.9 314.7 316.5 -9999 -9999 -9999 -9999 
-9999 -9999 -9999 -9999 -9999 -9999 -9999 -9999 -9999 -9999 -9999 -9999 -9999 -9999 -9999 -9999 -9999 -9999 243.5 242.0 235.3 229.4 226.9 217.8 215.3 225.0 224.8 219.0 209.0 190.3 179.8 171.9 165.1 164.1 177.6 178.3 177.3 198.3 212.8 222.7 235.4 242.5 246.2 250.9 253.2 254.8 256.9 257.7 257.7 252.7 248.9 240.8 234.8 233.2 238.8 238.6 242.7 248.1 253.1 255.9 257.6 262.2 268.0 272.5 276.5 279.7 282.2 283.8 287.3 290.1 292.3 299.5 304.4 309.3 313.6 314.3 314.3 -9999 -9999 -9999 -9999 -9999 
-9999 -9999 -9999 -9999 -9999 -9999 -9999 -9999 -9999 -9999 -9999 -9999 -9999 -9999 -9999 -9999 -9999 -9999 246.9 245.8 242.5 239.9 235.7 225.0 229.8 230.1 226.5 217.6 199.6 180.6 172.6 166.6 166.3 168.1 192.9 198.6 185.7 181.9 183.3 194.9 218.9 234.8 246.2 251.8 252.8 252.5 252.5 248.3 240.5 227.8 224.0 229.9 237.5 243.5 244.4 249.4 251.3 258.6 261.8 264.2 266.8 268.4 270.2 272.7 275.0 277.6 281.4 284.1 288.2 291.4 299.4 301.9 308.0 311.0 314.6 314.2 -9999 -9999 -9999 -9999 -9999 -9999 
-9999 -9999 -9999 -9999 -9999 -9999 -9999 -9999 -9999 -9999 -9999 -9999 -9999 -9999 -9999 -9999 -9999 -9999 249.6 248.5 245.6 242.5 237.3 233.7 235.7 234.4 229.0 217.9 200.3 177.7 167.6 165.7 167.8 176.6 203.5 216.6 208.7 196.2 189.7 186.3 210.7 230.0 245.6 247.4 245.5 243.5 238.4 229.6 220.7 228.4 238.6 248.7 254.5 257.7 255.2 256.2 258.8 261.1 265.0 268.4 271.0 273.4 275.1 277.9 279.8 281.4 284.2 286.6 289.3 292.2 298.4 301.9 308.2 311.1 311.3 -9999 -9999 -9999 -9999 -9999 -9999 -9999 
-9999 -9999 -9999 -9999 -9999 -9999 -9999 -9999 -9999 -9999 -9999 -9999 -9999 -9999 -9999 -9999 -9999 -9999 251.6 250.2 248.9 246.2 242.0 241.3 240.8 238.4 232.0 224.3 212.9 184.1 167.8 165.8 172.5 181.3 202.5 218.7 227.1 216.8 198.3 187.3 210.2 230.7 237.8 232.7 228.0 223.9 214.9 213.8 225.2 244.1 256.1 261.1 263.0 263.7 264.4 264.5 265.0 266.7 268.2 271.5 274.9 277.2 279.2 282.2 283.9 285.6 288.0 289.4 292.0 293.9 298.1 300.3 309.9 307.2 306.3 -9999 -9999 -9999 -9999 -9999 -9999 -9999 
-9999 -9999 -9999 -9999 -9999 -9999 -9999 -9999 -9999 -9999 -9999 -9999 -9999 -9999 -9999 -9999 -9999 -9999 254.5 253.6 252.6 251.0 249.5 247.7 244.3 241.6 236.6 231.1 224.6 188.0 167.2 166.3 176.0 182.9 196.5 211.1 226.1 229.7 203.1 189.5 207.0 214.8 207.7 201.9 204.6 208.0 220.8 233.0 238.5 250.7 258.7 263.3 265.3 267.8 270.5 272.0 272.4 273.1 274.1 276.2 279.8 282.0 284.4 286.8 288.2 290.3 292.0 293.4 295.6 297.4 299.7 301.9 303.5 304.4 -9999 -9999 -9999 -9999 -9999 -9999 -9999 -9999 
-9999 -9999 -9999 -9999 -9999 -9999 -9999 -9999 -9999 -9999 -9999 -9999 -9999 -9999 -9999 -9999 -9999 -9999 256.6 256.2 255.2 254.3 252.3 249.4 246.6 243.2 236.8 230.8 219.8 185.8 168.9 168.4 180.4 187.2 199.4 212.2 227.9 233.2 214.5 196.3 193.9 196.8 199.7 210.2 221.0 224.3 237.8 246.6 251.0 254.7 258.2 264.4 267.3 270.1 272.9 274.7 276.5 277.7 278.5 279.8 282.7 285.2 286.9 289.8 291.3 292.6 295.1 295.9 297.9 300.0 301.3 303.3 303.8 -9999 -9999 -9999 -9999 -9999 -9999 -9999 -9999 -9999 
-9999 -9999 -9999 -9999 -9999 -9999 -9999 -9999 -9999 -9999 -9999 -9999 -9999 -9999 -9999 -9999 -9999 -9999 260.2 260.1 258.3 257.1 254.9 250.8 246.9 241.7 232.2 221.4 202.7 179.4 172.0 168.3 184.8 195.4 209.5 222.4 233.3 236.5 231.5 220.4 209.9 211.1 216.9 229.3 239.5 242.9 248.9 253.4 257.6 261.4 264.2 266.2 269.6 271.9 274.6 277.4 279.4 281.6 282.7 284.0 286.3 288.1 289.7 291.5 293.4 295.6 297.5 298.6 299.9 301.6 302.6 -9999 -9999 -9999 -9999 -9999 -9999 -9999 -9999 -9999 -9999 -9999 
-9999 -9999 -9999 -9999 -9999 -9999 -9999 -9999 -9999 -9999 -9999 -9999 -9999 -9999 -9999 -9999 -9999 -9999 263.3 261.8 260.0 258.7 257.1 252.2 247.9 242.1 234.6 224.3 210.9 180.9 171.5 167.4 183.3 199.6 218.2 230.7 236.3 240.0 239.7 239.0 232.7 231.8 234.6 241.8 246.9 248.8 252.6 256.2 259.2 262.8 265.6 268.6 270.7 272.7 275.6 278.6 280.9 283.4 284.9 285.5 288.0 289.7 291.6 294.5 295.7 297.6 299.2 300.5 302.1 302.8 -9999 -9999 -9999 -9999 -9999 -9999 -9999 -9999 -9999 -9999 -9999 -9999 
-9999 -9999 -9999 -9999 -9999 -9999 -9999 -9999 -9999 -9999 -9999 -9999 -9999 -9999 -9999 -9999 -9999 266.1 265.1 263.7 262.4 260.3 259.1 254.0 249.1 243.0 235.3 229.0 214.6 184.0 172.9 167.9 178.4 197.9 219.0 231.7 237.1 241.4 243.0 243.7 243.8 244.3 245.5 248.5 250.4 252.0 254.8 257.2 260.2 263.6 266.5 269.9 272.6 273.2 276.7 279.1 281.7 284.6 285.9 287.5 289.6 291.5 293.2 295.8 297.5 299.0 301.1 302.0 -9999 -9999 -9999 -9999 -9999 -9999 -9999 -9999 -9999 -9999 -9999 -9999 -9999 -9999 
-9999 -9999 -9999 -9999 -9999 -9999 -9999 -9999 -9999 -9999 -9999 -9999 -9999 -9999 -9999 -9999 270.2 270.0 269.3 267.4 265.7 263.4 260.4 255.6 251.7 246.0 233.8 218.0 204.2 188.6 177.3 167.7 172.4 187.7 214.2 233.0 239.6 244.0 245.9 246.7 246.6 248.2 249.7 251.2 253.1 254.8 256.6 257.8 259.8 263.0 265.8 268.5 271.1 272.9 276.5 279.1 281.0 284.1 286.5 289.5 291.8 293.0 295.0 296.7 298.7 300.2 -9999 -9999 -9999 -9999 -9999 -9999 -9999 -9999 -9999 -9999 -9999 -9999 -9999 -9999 -9999 -9999 
-9999 -9999 -9999 -9999 -9999 -9999 -9999 -9999 -9999 -9999 -9999 -9999 -9999 -9999 -9999 -9999 272.8 272.8 271.9 270.0 267.8 265.0 262.0 257.4 252.9 246.3 232.1 225.3 217.5 198.6 186.8 172.1 170.7 181.3 207.7 231.4 241.4 245.7 247.6 248.5 247.7 245.8 246.0 252.0 256.4 255.0 256.2 258.7 261.1 263.9 265.7 268.4 270.6 272.2 276.2 278.4 280.7 284.2 287.3 290.0 291.4 293.2 295.4 297.7 298.5 300.1 -9999 -9999 -9999 -9999 -9999 -9999 -9999 -9999 -9999 -9999 -9999 -9999 -9999 -9999 -9999 -9999 
-9999 -9999 -9999 -9999 -9999 -9999 -9999 -9999 -9999 -9999 -9999 -9999 -9999 -9999 -9999 -9999 275.9 275.3 273.9 272.0 269.2 265.7 263.1 258.0 253.0 246.3 240.6 235.5 226.7 207.2 195.5 178.4 170.0 177.4 202.0 225.4 240.8 246.4 248.1 249.2 238.9 228.5 234.3 245.9 250.2 252.5 255.1 257.9 261.2 264.6 267.6 270.7 272.6 275.1 277.7 279.9 282.3 285.7 288.5 290.4 292.3 294.1 295.5 297.5 -9999 -9999 -9999 -9999 -9999 -9999 -9999 -9999 -9999 -9999 -9999 -9999 -9999 -9999 -9999 -9999 -9999 -9999 
-9999 -9999 -9999 -9999 -9999 -9999 -9999 -9999 -9999 -9999 -9999 -9999 -9999 -9999 -9999 -9999 279.0 277.3 275.9 274.2 270.3 266.9 262.9 257.4 253.6 251.0 245.9 240.6 232.9 216.4 203.8 181.4 169.8 174.8 197.3 221.3 239.3 245.3 246.7 242.3 220.5 229.9 242.1 240.7 243.4 247.3 254.5 259.3 262.9 266.3 269.1 272.9 275.0 277.1 280.8 283.1 285.4 288.2 290.7 292.9 294.5 296.7 297.3 -9999 -9999 -9999 -9999 -9999 -9999 -9999 -9999 -9999 -9999 -9999 -9999 -9999 -9999 -9999 -9999 -9999 -9999 -9999 
-9999 -9999 -9999 -9999 -9999 -9999 -9999 -9999 -9999 -9999 -9999 -9999 -9999 -9999 -9999 -9999 280.1 278.6 276.9 275.0 270.4 267.2 263.7 260.3 257.6 254.1 248.5 243.4 237.1 222.4 211.5 187.4 170.2 173.3 196.7 220.3 237.9 242.4 238.5 228.4 213.1 220.8 224.7 232.5 247.6 255.3 260.0 263.4 266.2 269.0 271.5 274.8 277.3 279.9 282.8 285.3 287.1 290.1 292.4 294.4 296.6 298.0 298.5 -9999 -9999 -9999 -9999 -9999 -9999 -9999 -9999 -9999 -9999 -9999 -9999 -9999 -9999 -9999 -9999 -9999 -9999 -9999 
-9999 -9999 -9999 -9999 -9999 -9999 -9999 -9999 -9999 -9999 -9999 -9999 -9999 -9999 -9999 282.3 281.6 279.5 277.8 275.6 271.6 269.3 266.7 263.2 260.1 256.5 252.1 248.3 241.8 226.5 211.7 190.8 172.6 171.6 195.1 222.3 231.7 225.6 215.2 205.0 213.5 218.2 227.8 235.0 242.0 252.4 261.8 266.1 268.5 271.0 273.3 276.4 279.2 282.3 284.7 287.2 288.5 291.5 293.3 295.9 297.3 298.7 -9999 -9999 -9999 -9999 -9999 -9999 -9999 -9999 -9999 -9999 -9999 -9999 -9999 -9999 -9999 -9999 -9999 -9999 -9999 -9999 
-9999 -9999 -9999 -9999 -9999 -9999 -9999 -9999 -9999 -9999 -9999 -9999 -9999 -9999 284.0 282.7 282.6 281.8 278.8 275.9 273.1 270.4 267.4 264.0 260.7 258.2 251.6 246.9 234.2 211.0 197.2 185.5 176.5 172.7 181.2 204.8 206.2 194.8 195.8 208.6 226.7 235.7 241.9 252.6 254.7 256.1 261.5 265.9 269.7 273.9 275.5 278.4 281.0 283.5 286.3 288.5 290.6 292.7 295.0 296.1 298.5 299.4 -9999 -9999 -9999 -9999 -9999 -9999 -9999 -9999 -9999 -9999 -9999 -9999 -9999 -9999 -9999 -9999 -9999 -9999 -9999 -9999 
-9999 -9999 -9999 -9999 -9999 -9999 -9999 -9999 -9999 -9999 -9999 -9999 -9999 -9999 285.3 283.6 282.9 279.3 277.7 275.9 272.4 268.8 267.3 263.6 260.2 256.2 248.7 239.2 221.3 202.6 193.4 186.1 178.6 172.8 175.2 184.2 186.2 192.2 208.8 222.3 230.9 239.9 249.5 257.5 261.4 263.7 267.8 270.3 272.9 275.8 277.9 279.9 282.0 283.8 287.3 288.9 291.6 293.7 295.4 297.0 298.7 300.1 -9999 -9999 -9999 -9999 -9999 -9999 -9999 -9999 -9999 -9999 -9999 -9999 -9999 -9999 -9999 -9999 -9999 -9999 -9999 -9999 
-9999 -9999 -9999 -9999 -9999 -9999 -9999 -9999 -9999 -9999 -9999 -9999 -9999 -9999 -9999 283.5 281.6 279.0 276.0 274.0 270.7 268.2 265.9 261.5 257.8 253.6 244.9 232.8 212.8 196.5 190.0 185.2 178.4 173.2 173.4 178.7 188.2 205.3 219.5 229.0 238.2 245.2 251.8 260.4 263.3 266.0 270.2 272.5 274.3 277.8 280.3 281.6 283.5 285.8 288.1 290.2 292.4 295.0 296.5 298.2 299.2 300.4 -9999 -9999 -9999 -9999 -9999 -9999 -9999 -9999 -9999 -9999 -9999 -9999 -9999 -9999 -9999 -9999 -9999 -9999 -9999 -9999 
-9999 -9999 -9999 -9999 -9999 -9999 -9999 -9999 -9999 -9999 -9999 -9999 -9999 -9999 -9999 284.2 280.5 276.3 272.7 269.6 267.1 265.2 263.3 258.8 255.2 249.9 237.4 223.3 207.6 195.0 189.2 186.3 183.1 173.3 172.5 179.3 191.1 206.8 219.2 231.5 245.1 251.4 257.3 263.2 266.3 268.5 271.8 273.9 276.7 279.6 281.5 283.0 285.0 287.1 289.8 291.6 293.8 296.6 298.3 299.2 -9999 -9999 -9999 -9999 -9999 -9999 -9999 -9999 -9999 -9999 -9999 -9999 -9999 -9999 -9999 -9999 -9999 -9999 -9999 -9999 -9999 -9999 
-9999 -9999 -9999 -9999 -9999 -9999 -9999 -9999 -9999 -9999 -9999 -9999 -9999 -9999 -9999 287.0 278.7 271.5 266.3 261.9 258.9 258.5 257.4 255.9 253.8 249.4 237.6 224.3 211.6 199.9 193.1 189.6 184.0 173.8 174.4 183.1 195.5 208.3 220.6 232.1 246.8 254.5 259.2 265.1 268.2 270.9 273.1 275.2 277.7 281.3 282.6 284.3 286.2 287.8 290.3 292.0 294.4 297.0 298.3 299.0 -9999 -9999 -9999 -9999 -9999 -9999 -9999 -9999 -9999 -9999 -9999 -9999 -9999 -9999 -9999 -9999 -9999 -9999 -9999 -9999 -9999 -9999 
-9999 -9999 -9999 -9999 -9999 -9999 -9999 -9999 -9999 -9999 -9999 -9999 -9999 -9999 -9999 286.1 279.3 270.8 266.1 263.1 254.0 247.1 243.1 239.1 242.2 247.1 245.1 236.0 224.9 208.4 201.1 192.9 181.2 174.5 176.7 187.5 196.8 208.4 218.6 228.6 242.1 252.2 258.9 -9999 -9999 -9999 -9999 275.8 277.9 281.0 -9999 -9999 287.7 289.5 291.5 293.4 295.4 296.3 297.3 -9999 -9999 -9999 -9999 -9999 -9999 -9999 -9999 -9999 -9999 -9999 -9999 -9999 -9999 -9999 -9999 -9999 -9999 -9999 -9999 -9999 -9999 -9999 
-9999 -9999 -9999 -9999 -9999 -9999 -9999 -9999 -9999 -9999 -9999 -9999 -9999 -9999 288.0 285.7 281.1 274.8 270.0 268.1 257.4 245.2 237.4 228.3 223.8 227.9 234.1 228.6 221.3 212.7 203.9 189.5 178.3 173.9 177.9 191.1 201.4 210.8 219.7 227.8 239.6 247.1 -9999 -9999 -9999 -9999 -9999 -9999 -9999 -9999 -9999 -9999 -9999 -9999 -9999 -9999 -9999 -9999 -9999 -9999 -9999 -9999 -9999 -9999 -9999 -9999 -9999 -9999 -9999 -9999 -9999 -9999 -9999 -9999 -9999 -9999 -9999 -9999 -9999 -9999 -9999 -9999 
-9999 -9999 -9999 -9999 -9999 -9999 -9999 -9999 -9999 -9999 -9999 -9999 -9999 -9999 289.7 285.3 280.2 274.0 268.6 265.5 256.6 250.1 246.1 234.1 215.8 210.9 211.2 209.9 205.5 202.5 196.0 192.9 185.8 176.4 177.8 189.9 -9999 216.1 223.9 230.5 238.6 -9999 -9999 -9999 -9999 -9999 -9999 -9999 -9999 -9999 -9999 -9999 -9999 -9999 -9999 -9999 -9999 -9999 -9999 -9999 -9999 -9999 -9999 -9999 -9999 -9999 -9999 -9999 -9999 -9999 -9999 -9999 -9999 -9999 -9999 -9999 -9999 -9999 -9999 -9999 -9999 -9999 
-9999 -9999 -9999 -9999 -9999 -9999 -9999 -9999 -9999 -9999 -9999 -9999 -9999 290.8 288.7 286.5 281.8 274.5 268.7 262.7 260.3 259.3 250.3 221.8 212.9 214.8 210.2 207.9 208.2 213.1 217.5 218.3 196.2 181.5 175.7 -9999 -9999 -9999 -9999 -9999 -9999 -9999 -9999 -9999 -9999 -9999 -9999 -9999 -9999 -9999 -9999 -9999 -9999 -9999 -9999 -9999 -9999 -9999 -9999 -9999 -9999 -9999 -9999 -9999 -9999 -9999 -9999 -9999 -9999 -9999 -9999 -9999 -9999 -9999 -9999 -9999 -9999 -9999 -9999 -9999 -9999 -9999 
-9999 -9999 -9999 -9999 -9999 -9999 -9999 -9999 -9999 -9999 -9999 -9999 -9999 295.5 288.8 286.6 282.7 275.2 271.5 267.3 260.9 254.6 241.3 215.9 223.7 231.7 229.2 229.2 230.2 235.6 234.6 -9999 -9999 -9999 -9999 -9999 -9999 -9999 -9999 -9999 -9999 -9999 -9999 -9999 -9999 -9999 -9999 -9999 -9999 -9999 -9999 -9999 -9999 -9999 -9999 -9999 -9999 -9999 -9999 -9999 -9999 -9999 -9999 -9999 -9999 -9999 -9999 -9999 -9999 -9999 -9999 -9999 -9999 -9999 -9999 -9999 -9999 -9999 -9999 -9999 -9999 -9999 
-9999 -9999 -9999 -9999 -9999 -9999 -9999 -9999 -9999 -9999 -9999 -9999 -9999 295.8 292.0 285.0 283.2 277.5 273.2 268.9 255.0 243.1 230.5 220.5 238.6 247.8 248.0 249.0 248.9 -9999 -9999 -9999 -9999 -9999 -9999 -9999 -9999 -9999 -9999 -9999 -9999 -9999 -9999 -9999 -9999 -9999 -9999 -9999 -9999 -9999 -9999 -9999 -9999 -9999 -9999 -9999 -9999 -9999 -9999 -9999 -9999 -9999 -9999 -9999 -9999 -9999 -9999 -9999 -9999 -9999 -9999 -9999 -9999 -9999 -9999 -9999 -9999 -9999 -9999 -9999 -9999 -9999 
-9999 -9999 -9999 -9999 -9999 -9999 -9999 -9999 -9999 -9999 -9999 -9999 297.9 294.8 291.0 285.2 283.7 276.9 269.3 261.8 236.0 225.1 225.1 234.0 248.4 257.6 259.8 260.3 -9999 -9999 -9999 -9999 -9999 -9999 -9999 -9999 -9999 -9999 -9999 -9999 -9999 -9999 -9999 -9999 -9999 -9999 -9999 -9999 -9999 -9999 -9999 -9999 -9999 -9999 -9999 -9999 -9999 -9999 -9999 -9999 -9999 -9999 -9999 -9999 -9999 -9999 -9999 -9999 -9999 -9999 -9999 -9999 -9999 -9999 -9999 -9999 -9999 -9999 -9999 -9999 -9999 -9999 
-9999 -9999 -9999 -9999 -9999 -9999 -9999 -9999 -9999 -9999 -9999 -9999 298.3 294.9 290.3 285.7 282.5 275.0 268.1 256.0 226.9 227.6 235.1 248.9 257.9 263.8 265.2 -9999 -9999 -9999 -9999 -9999 -9999 -9999 -9999 -9999 -9999 -9999 -9999 -9999 -9999 -9999 -9999 -9999 -9999 -9999 -9999 -9999 -9999 -9999 -9999 -9999 -9999 -9999 -9999 -9999 -9999 -9999 -9999 -9999 -9999 -9999 -9999 -9999 -9999 -9999 -9999 -9999 -9999 -9999 -9999 -9999 -9999 -9999 -9999 -9999 -9999 -9999 -9999 -9999 -9999 -9999 
-9999 -9999 -9999 -9999 -9999 -9999 -9999 -9999 -9999 -9999 -9999 -9999 299.3 295.3 290.9 285.6 281.9 275.1 265.2 246.5 227.9 237.6 250.2 260.2 264.2 266.7 -9999 -9999 -9999 -9999 -9999 -9999 -9999 -9999 -9999 -9999 -9999 -9999 -9999 -9999 -9999 -9999 -9999 -9999 -9999 -9999 -9999 -9999 -9999 -9999 -9999 -9999 -9999 -9999 -9999 -9999 -9999 -9999 -9999 -9999 -9999 -9999 -9999 -9999 -9999 -9999 -9999 -9999 -9999 -9999 -9999 -9999 -9999 -9999 -9999 -9999 -9999 -9999 -9999 -9999 -9999 -9999 
-9999 -9999 -9999 -9999 -9999 -9999 -9999 -9999 -9999 -9999 -9999 -9999 -9999 296.3 292.5 284.8 280.0 267.4 253.9 239.1 237.8 258.8 270.2 276.0 276.3 274.0 -9999 -9999 -9999 -9999 -9999 -9999 -9999 -9999 -9999 -9999 -9999 -9999 -9999 -9999 -9999 -9999 -9999 -9999 -9999 -9999 -9999 -9999 -9999 -9999 -9999 -9999 -9999 -9999 -9999 -9999 -9999 -9999 -9999 -9999 -9999 -9999 -9999 -9999 -9999 -9999 -9999 -9999 -9999 -9999 -9999 -9999 -9999 -9999 -9999 -9999 -9999 -9999 -9999 -9999 -9999 -9999 
-9999 -9999 -9999 -9999 -9999 -9999 -9999 -9999 -9999 -9999 -9999 -9999 300.0 298.0 292.9 284.0 278.7 267.4 252.2 236.9 245.7 269.8 278.8 282.5 283.0 280.4 -9999 -9999 -9999 -9999 -9999 -9999 -9999 -9999 -9999 -9999 -9999 -9999 -9999 -9999 -9999 -9999 -9999 -9999 -9999 -9999 -9999 -9999 -9999 -9999 -9999 -9999 -9999 -9999 -9999 -9999 -9999 -9999 -9999 -9999 -9999 -9999 -9999 -9999 -9999 -9999 -9999 -9999 -9999 -9999 -9999 -9999 -9999 -9999 -9999 -9999 -9999 -9999 -9999 -9999 -9999 -9999 
-9999 -9999 -9999 -9999 -9999 -9999 -9999 -9999 -9999 -9999 -9999 -9999 -9999 297.3 292.4 282.0 276.2 259.6 246.4 238.8 261.2 275.9 281.4 286.7 -9999 -9999 -9999 -9999 -9999 -9999 -9999 -9999 -9999 -9999 -9999 -9999 -9999 -9999 -9999 -9999 -9999 -9999 -9999 -9999 -9999 -9999 -9999 -9999 -9999 -9999 -9999 -9999 -9999 -9999 -9999 -9999 -9999 -9999 -9999 -9999 -9999 -9999 -9999 -9999 -9999 -9999 -9999 -9999 -9999 -9999 -9999 -9999 -9999 -9999 -9999 -9999 -9999 -9999 -9999 -9999 -9999 -9999 
-9999 -9999 -9999 -9999 -9999 -9999 -9999 -9999 -9999 -9999 299.1 301.7 301.7 295.9 287.1 273.4 262.3 246.4 240.7 252.3 272.4 279.4 286.1 288.4 -9999 -9999 -9999 -9999 -9999 -9999 -9999 -9999 -9999 -9999 -9999 -9999 -9999 -9999 -9999 -9999 -9999 -9999 -9999 -9999 -9999 -9999 -9999 -9999 -9999 -9999 -9999 -9999 -9999 -9999 -9999 -9999 -9999 -9999 -9999 -9999 -9999 -9999 -9999 -9999 -9999 -9999 -9999 -9999 -9999 -9999 -9999 -9999 -9999 -9999 -9999 -9999 -9999 -9999 -9999 -9999 -9999 -9999 
-9999 -9999 -9999 -9999 -9999 -9999 -9999 -9999 -9999 -9999 297.6 300.4 297.3 290.7 279.5 259.6 250.4 245.6 255.2 267.6 280.1 284.7 290.0 -9999 -9999 -9999 -9999 -9999 -9999 -9999 -9999 -9999 -9999 -9999 -9999 -9999 -9999 -9999 -9999 -9999 -9999 -9999 -9999 -9999 -9999 -9999 -9999 -9999 -9999 -9999 -9999 -9999 -9999 -9999 -9999 -9999 -9999 -9999 -9999 -9999 -9999 -9999 -9999 -9999 -9999 -9999 -9999 -9999 -9999 -9999 -9999 -9999 -9999 -9999 -9999 -9999 -9999 -9999 -9999 -9999 -9999 -9999 
-9999 -9999 -9999 -9999 -9999 -9999 -9999 -9999 -9999 300.5 297.2 297.2 290.5 279.7 261.2 255.5 262.7 266.9 272.2 279.5 286.3 287.5 -9999 -9999 -9999 -9999 -9999 -9999 -9999 -9999 -9999 -9999 -9999 -9999 -9999 -9999 -9999 -9999 -9999 -9999 -9999 -9999 -9999 -9999 -9999 -9999 -9999 -9999 -9999 -9999 -9999 -9999 -9999 -9999 -9999 -9999 -9999 -9999 -9999 -9999 -9999 -9999 -9999 -9999 -9999 -9999 -9999 -9999 -9999 -9999 -9999 -9999 -9999 -9999 -9999 -9999 -9999 -9999 -9999 -9999 -9999 -9999 
-9999 -9999 -9999 -9999 -9999 -9999 -9999 -9999 -9999 299.7 293.1 287.2 274.9 262.0 254.2 269.0 276.3 278.5 281.6 288.9 293.5 292.0 -9999 -9999 -9999 -9999 -9999 -9999 -9999 -9999 -9999 -9999 -9999 -9999 -9999 -9999 -9999 -9999 -9999 -9999 -9999 -9999 -9999 -9999 -9999 -9999 -9999 -9999 -9999 -9999 -9999 -9999 -9999 -9999 -9999 -9999 -9999 -9999 -9999 -9999 -9999 -9999 -9999 -9999 -9999 -9999 -9999 -9999 -9999 -9999 -9999 -9999 -9999 -9999 -9999 -9999 -9999 -9999 -9999 -9999 -9999 -9999 
-9999 -9999 -9999 -9999 -9999 -9999 -9999 -9999 -9999 295.1 284.8 274.4 265.1 258.5 265.5 279.6 284.2 287.0 293.5 296.5 299.5 -9999 -9999 -9999 -9999 -9999 -9999 -9999 -9999 -9999 -9999 -9999 -9999 -9999 -9999 -9999 -9999 -9999 -9999 -9999 -9999 -9999 -9999 -9999 -9999 -9999 -9999 -9999 -9999 -9999 -9999 -9999 -9999 -9999 -9999 -9999 -9999 -9999 -9999 -9999 -9999 -9999 -9999 -9999 -9999 -9999 -9999 -9999 -9999 -9999 -9999 -9999 -9999 -9999 -9999 -9999 -9999 -9999 -9999 -9999 -9999 -9999 
-9999 -9999 -9999 -9999 -9999 -9999 -9999 -9999 298.2 282.1 269.5 265.0 269.0 272.4 281.0 291.5 297.2 300.0 301.3 302.9 -9999 -9999 -9999 -9999 -9999 -9999 -9999 -9999 -9999 -9999 -9999 -9999 -9999 -9999 -9999 -9999 -9999 -9999 -9999 -9999 -9999 -9999 -9999 -9999 -9999 -9999 -9999 -9999 -9999 -9999 -9999 -9999 -9999 -9999 -9999 -9999 -9999 -9999 -9999 -9999 -9999 -9999 -9999 -9999 -9999 -9999 -9999 -9999 -9999 -9999 -9999 -9999 -9999 -9999 -9999 -9999 -9999 -9999 -9999 -9999 -9999 -9999 
-9999 -9999 -9999 -9999 -9999 -9999 -9999 300.2 295.1 275.4 268.2 276.8 287.1 287.1 287.3 295.9 297.2 303.3 305.8 305.7 -9999 -9999 -9999 -9999 -9999 -9999 -9999 -9999 -9999 -9999 -9999 -9999 -9999 -9999 -9999 -9999 -9999 -9999 -9999 -9999 -9999 -9999 -9999 -9999 -9999 -9999 -9999 -9999 -9999 -9999 -9999 -9999 -9999 -9999 -9999 -9999 -9999 -9999 -9999 -9999 -9999 -9999 -9999 -9999 -9999 -9999 -9999 -9999 -9999 -9999 -9999 -9999 -9999 -9999 -9999 -9999 -9999 -9999 -9999 -9999 -9999 -9999 
-9999 -9999 -9999 -9999 -9999 -9999 304.4 302.8 289.9 272.8 278.3 294.5 298.7 296.6 294.6 300.3 298.1 306.3 307.4 307.4 -9999 -9999 -9999 -9999 -9999 -9999 -9999 -9999 -9999 -9999 -9999 -9999 -9999 -9999 -9999 -9999 -9999 -9999 -9999 -9999 -9999 -9999 -9999 -9999 -9999 -9999 -9999 -9999 -9999 -9999 -9999 -9999 -9999 -9999 -9999 -9999 -9999 -9999 -9999 -9999 -9999 -9999 -9999 -9999 -9999 -9999 -9999 -9999 -9999 -9999 -9999 -9999 -9999 -9999 -9999 -9999 -9999 -9999 -9999 -9999 -9999 -9999 
-9999 -9999 -9999 -9999 -9999 -9999 -9999 302.6 293.7 273.4 285.8 302.9 304.2 304.1 302.8 302.3 309.1 308.7 308.6 -9999 -9999 -9999 -9999 -9999 -9999 -9999 -9999 -9999 -9999 -9999 -9999 -9999 -9999 -9999 -9999 -9999 -9999 -9999 -9999 -9999 -9999 -9999 -9999 -9999 -9999 -9999 -9999 -9999 -9999 -9999 -9999 -9999 -9999 -9999 -9999 -9999 -9999 -9999 -9999 -9999 -9999 -9999 -9999 -9999 -9999 -9999 -9999 -9999 -9999 -9999 -9999 -9999 -9999 -9999 -9999 -9999 -9999 -9999 -9999 -9999 -9999 -9999 
-9999 -9999 -9999 -9999 -9999 -9999 -9999 305.7 295.1 277.6 286.0 305.6 307.2 307.2 305.8 304.4 305.0 309.5 311.0 -9999 -9999 -9999 -9999 -9999 -9999 -9999 -9999 -9999 -9999 -9999 -9999 -9999 -9999 -9999 -9999 -9999 -9999 -9999 -9999 -9999 -9999 -9999 -9999 -9999 -9999 -9999 -9999 -9999 -9999 -9999 -9999 -9999 -9999 -9999 -9999 -9999 -9999 -9999 -9999 -9999 -9999 -9999 -9999 -9999 -9999 -9999 -9999 -9999 -9999 -9999 -9999 -9999 -9999 -9999 -9999 -9999 -9999 -9999 -9999 -9999 -9999 -9999 
-9999 -9999 -9999 -9999 -9999 -9999 -9999 309.5 300.5 281.6 288.4 306.7 310.1 310.3 308.3 306.2 305.5 305.5 307.1 -9999 -9999 -9999 -9999 -9999 -9999 -9999 -9999 -9999 -9999 -9999 -9999 -9999 -9999 -9999 -9999 -9999 -9999 -9999 -9999 -9999 -9999 -9999 -9999 -9999 -9999 -9999 -9999 -9999 -9999 -9999 -9999 -9999 -9999 -9999 -9999 -9999 -9999 -9999 -9999 -9999 -9999 -9999 -9999 -9999 -9999 -9999 -9999 -9999 -9999 -9999 -9999 -9999 -9999 -9999 -9999 -9999 -9999 -9999 -9999 -9999 -9999 -9999 
-9999 -9999 -9999 -9999 -9999 -9999 312.2 310.9 302.8 285.4 297.7 310.3 313.1 313.3 310.9 308.5 308.3 308.2 -9999 -9999 -9999 -9999 -9999 -9999 -9999 -9999 -9999 -9999 -9999 -9999 -9999 -9999 -9999 -9999 -9999 -9999 -9999 -9999 -9999 -9999 -9999 -9999 -9999 -9999 -9999 -9999 -9999 -9999 -9999 -9999 -9999 -9999 -9999 -9999 -9999 -9999 -9999 -9999 -9999 -9999 -9999 -9999 -9999 -9999 -9999 -9999 -9999 -9999 -9999 -9999 -9999 -9999 -9999 -9999 -9999 -9999 -9999 -9999 -9999 -9999 -9999 -9999 
-9999 -9999 -9999 -9999 -9999 319.0 312.3 307.1 297.8 292.9 307.3 313.5 315.6 314.7 312.4 310.7 -9999 -9999 -9999 -9999 -9999 -9999 -9999 -9999 -9999 -9999 -9999 -9999 -9999 -9999 -9999 -9999 -9999 -9999 -9999 -9999 -9999 -9999 -9999 -9999 -9999 -9999 -9999 -9999 -9999 -9999 -9999 -9999 -9999 -9999 -9999 -9999 -9999 -9999 -9999 -9999 -9999 -9999 -9999 -9999 -9999 -9999 -9999 -9999 -9999 -9999 -9999 -9999 -9999 -9999 -9999 -9999 -9999 -9999 -9999 -9999 -9999 -9999 -9999 -9999 -9999 -9999 
-9999 -9999 -9999 -9999 320.1 317.7 313.3 304.4 297.6 299.8 312.1 318.2 318.9 317.2 314.7 -9999 -9999 -9999 -9999 -9999 -9999 -9999 -9999 -9999 -9999 -9999 -9999 -9999 -9999 -9999 -9999 -9999 -9999 -9999 -9999 -9999 -9999 -9999 -9999 -9999 -9999 -9999 -9999 -9999 -9999 -9999 -9999 -9999 -9999 -9999 -9999 -9999 -9999 -9999 -9999 -9999 -9999 -9999 -9999 -9999 -9999 -9999 -9999 -9999 -9999 -9999 -9999 -9999 -9999 -9999 -9999 -9999 -9999 -9999 -9999 -9999 -9999 -9999 -9999 -9999 -9999 -9999 
-9999 -9999 -9999 324.3 319.7 318.4 311.7 304.0 303.0 299.6 304.4 315.6 320.9 319.2 -9999 -9999 -9999 -9999 -9999 -9999 -9999 -9999 -9999 -9999 -9999 -9999 -9999 -9999 -9999 -9999 -9999 -9999 -9999 -9999 -9999 -9999 -9999 -9999 -9999 -9999 -9999 -9999 -9999 -9999 -9999 -9999 -9999 -9999 -9999 -9999 -9999 -9999 -9999 -9999 -9999 -9999 -9999 -9999 -9999 -9999 -9999 -9999 -9999 -9999 -9999 -9999 -9999 -9999 -9999 -9999 -9999 -9999 -9999 -9999 -9999 -9999 -9999 -9999 -9999 -9999 -9999 -9999 
-9999 -9999 -9999 325.0 321.6 317.6 312.1 312.8 313.7 310.1 305.6 307.4 320.8 -9999 -9999 -9999 -9999 -9999 -9999 -9999 -9999 -9999 -9999 -9999 -9999 -9999 -9999 -9999 -9999 -9999 -9999 -9999 -9999 -9999 -9999 -9999 -9999 -9999 -9999 -9999 -9999 -9999 -9999 -9999 -9999 -9999 -9999 -9999 -9999 -9999 -9999 -9999 -9999 -9999 -9999 -9999 -9999 -9999 -9999 -9999 -9999 -9999 -9999 -9999 -9999 -9999 -9999 -9999 -9999 -9999 -9999 -9999 -9999 -9999 -9999 -9999 -9999 -9999 -9999 -9999 -9999 -9999 
-9999 -9999 -9999 -9999 326.2 321.6 318.9 320.7 322.2 329.4 326.5 314.0 322.3 -9999 -9999 -9999 -9999 -9999 -9999 -9999 -9999 -9999 -9999 -9999 -9999 -9999 -9999 -9999 -9999 -9999 -9999 -9999 -9999 -9999 -9999 -9999 -9999 -9999 -9999 -9999 -9999 -9999 -9999 -9999 -9999 -9999 -9999 -9999 -9999 -9999 -9999 -9999 -9999 -9999 -9999 -9999 -9999 -9999 -9999 -9999 -9999 -9999 -9999 -9999 -9999 -9999 -9999 -9999 -9999 -9999 -9999 -9999 -9999 -9999 -9999 -9999 -9999 -9999 -9999 -9999 -9999 -9999 
-9999 -9999 -9999 -9999 329.5 327.5 325.0 325.2 326.6 337.5 335.9 317.5 325.9 -9999 -9999 -9999 -9999 -9999 -9999 -9999 -9999 -9999 -9999 -9999 -9999 -9999 -9999 -9999 -9999 -9999 -9999 -9999 -9999 -9999 -9999 -9999 -9999 -9999 -9999 -9999 -9999 -9999 -9999 -9999 -9999 -9999 -9999 -9999 -9999 -9999 -9999 -9999 -9999 -9999 -9999 -9999 -9999 -9999 -9999 -9999 -9999 -9999 -9999 -9999 -9999 -9999 -9999 -9999 -9999 -9999 -9999 -9999 -9999 -9999 -9999 -9999 -9999 -9999 -9999 -9999 -9999 -9999 
-9999 -9999 -9999 -9999 330.8 329.0 330.1 329.8 330.7 337.1 331.9 319.7 328.8 -9999 -9999 -9999 -9999 -9999 -9999 -9999 -9999 -9999 -9999 -9999 -9999 -9999 -9999 -9999 -9999 -9999 -9999 -9999 -9999 -9999 -9999 -9999 -9999 -9999 -9999 -9999 -9999 -9999 -9999 -9999 -9999 -9999 -9999 -9999 -9999 -9999 -9999 -9999 -9999 -9999 -9999 -9999 -9999 -9999 -9999 -9999 -9999 -9999 -9999 -9999 -9999 -9999 -9999 -9999 -9999 -9999 -9999 -9999 -9999 -9999 -9999 -9999 -9999 -9999 -9999 -9999 -9999 -9999 
-9999 -9999 -9999 -9999 -9999 334.0 333.0 334.9 335.9 334.8 329.6 323.1 332.7 -9999 -9999 -9999 -9999 -9999 -9999 -9999 -9999 -9999 -9999 -9999 -9999 -9999 -9999 -9999 -9999 -9999 -9999 -9999 -9999 -9999 -9999 -9999 -9999 -9999 -9999 -9999 -9999 -9999 -9999 -9999 -9999 -9999 -9999 -9999 -9999 -9999 -9999 -9999 -9999 -9999 -9999 -9999 -9999 -9999 -9999 -9999 -9999 -9999 -9999 -9999 -9999 -9999 -9999 -9999 -9999 -9999 -9999 -9999 -9999 -9999 -9999 -9999 -9999 -9999 -9999 -9999 -9999 -9999 
-9999 -9999 -9999 -9999 -9999 337.6 336.6 337.5 337.9 335.2 329.8 329.0 335.6 -9999 -9999 -9999 -9999 -9999 -9999 -9999 -9999 -9999 -9999 -9999 -9999 -9999 -9999 -9999 -9999 -9999 -9999 -9999 -9999 -9999 -9999 -9999 -9999 -9999 -9999 -9999 -9999 -9999 -9999 -9999 -9999 -9999 -9999 -9999 -9999 -9999 -9999 -9999 -9999 -9999 -9999 -9999 -9999 -9999 -9999 -9999 -9999 -9999 -9999 -9999 -9999 -9999 -9999 -9999 -9999 -9999 -9999 -9999 -9999 -9999 -9999 -9999 -9999 -9999 -9999 -9999 -9999 -9999 
-9999 -9999 -9999 -9999 -9999 340.9 340.0 339.5 337.8 338.7 335.1 338.1 339.4 -9999 -9999 -9999 -9999 -9999 -9999 -9999 -9999 -9999 -9999 -9999 -9999 -9999 -9999 -9999 -9999 -9999 -9999 -9999 -9999 -9999 -9999 -9999 -9999 -9999 -9999 -9999 -9999 -9999 -9999 -9999 -9999 -9999 -9999 -9999 -9999 -9999 -9999 -9999 -9999 -9999 -9999 -9999 -9999 -9999 -9999 -9999 -9999 -9999 -9999 -9999 -9999 -9999 -9999 -9999 -9999 -9999 -9999 -9999 -9999 -9999 -9999 -9999 -9999 -9999 -9999 -9999 -9999 -9999 
-9999 -9999 -9999 -9999 -9999 343.3 342.2 339.5 337.5 340.1 342.8 342.1 343.1 -9999 -9999 -9999 -9999 -9999 -9999 -9999 -9999 -9999 -9999 -9999 -9999 -9999 -9999 -9999 -9999 -9999 -9999 -9999 -9999 -9999 -9999 -9999 -9999 -9999 -9999 -9999 -9999 -9999 -9999 -9999 -9999 -9999 -9999 -9999 -9999 -9999 -9999 -9999 -9999 -9999 -9999 -9999 -9999 -9999 -9999 -9999 -9999 -9999 -9999 -9999 -9999 -9999 -9999 -9999 -9999 -9999 -9999 -9999 -9999 -9999 -9999 -9999 -9999 -9999 -9999 -9999 -9999 -9999 
-9999 -9999 -9999 -9999 346.3 345.2 342.8 339.0 338.1 346.1 345.2 344.9 -9999 -9999 -9999 -9999 -9999 -9999 -9999 -9999 -9999 -9999 -9999 -9999 -9999 -9999 -9999 -9999 -9999 -9999 -9999 -9999 -9999 -9999 -9999 -9999 -9999 -9999 -9999 -9999 -9999 -9999 -9999 -9999 -9999 -9999 -9999 -9999 -9999 -9999 -9999 -9999 -9999 -9999 -9999 -9999 -9999 -9999 -9999 -9999 -9999 -9999 -9999 -9999 -9999 -9999 -9999 -9999 -9999 -9999 -9999 -9999 -9999 -9999 -9999 -9999 -9999 -9999 -9999 -9999 -9999 -9999 
-9999 -9999 -9999 -9999 349.2 347.3 344.4 342.5 344.9 347.0 348.2 349.6 -9999 -9999 -9999 -9999 -9999 -9999 -9999 -9999 -9999 -9999 -9999 -9999 -9999 -9999 -9999 -9999 -9999 -9999 -9999 -9999 -9999 -9999 -9999 -9999 -9999 -9999 -9999 -9999 -9999 -9999 -9999 -9999 -9999 -9999 -9999 -9999 -9999 -9999 -9999 -9999 -9999 -9999 -9999 -9999 -9999 -9999 -9999 -9999 -9999 -9999 -9999 -9999 -9999 -9999 -9999 -9999 -9999 -9999 -9999 -9999 -9999 -9999 -9999 -9999 -9999 -9999 -9999 -9999 -9999 -9999 
-9999 -9999 -9999 -9999 351.0 349.4 345.3 346.2 348.1 350.9 351.2 351.6 -9999 -9999 -9999 -9999 -9999 -9999 -9999 -9999 -9999 -9999 -9999 -9999 -9999 -9999 -9999 -9999 -9999 -9999 -9999 -9999 -9999 -9999 -9999 -9999 -9999 -9999 -9999 -9999 -9999 -9999 -9999 -9999 -9999 -9999 -9999 -9999 -9999 -9999 -9999 -9999 -9999 -9999 -9999 -9999 -9999 -9999 -9999 -9999 -9999 -9999 -9999 -9999 -9999 -9999 -9999 -9999 -9999 -9999 -9999 -9999 -9999 -9999 -9999 -9999 -9999 -9999 -9999 -9999 -9999 -9999 
-9999 -9999 -9999 -9999 351.7 350.1 347.9 349.8 351.6 353.1 353.8 353.7 -9999 -9999 -9999 -9999 -9999 -9999 -9999 -9999 -9999 -9999 -9999 -9999 -9999 -9999 -9999 -9999 -9999 -9999 -9999 -9999 -9999 -9999 -9999 -9999 -9999 -9999 -9999 -9999 -9999 -9999 -9999 -9999 -9999 -9999 -9999 -9999 -9999 -9999 -9999 -9999 -9999 -9999 -9999 -9999 -9999 -9999 -9999 -9999 -9999 -9999 -9999 -9999 -9999 -9999 -9999 -9999 -9999 -9999 -9999 -9999 -9999 -9999 -9999 -9999 -9999 -9999 -9999 -9999 -9999 -9999 
-9999 -9999 -9999 354.7 353.2 351.2 351.4 353.6 355.4 356.4 356.4 -9999 -9999 -9999 -9999 -9999 -9999 -9999 -9999 -9999 -9999 -9999 -9999 -9999 -9999 -9999 -9999 -9999 -9999 -9999 -9999 -9999 -9999 -9999 -9999 -9999 -9999 -9999 -9999 -9999 -9999 -9999 -9999 -9999 -9999 -9999 -9999 -9999 -9999 -9999 -9999 -9999 -9999 -9999 -9999 -9999 -9999 -9999 -9999 -9999 -9999 -9999 -9999 -9999 -9999 -9999 -9999 -9999 -9999 -9999 -9999 -9999 -9999 -9999 -9999 -9999 -9999 -9999 -9999 -9999 -9999 -9999 
-9999 -9999 -9999 -9999 355.6 354.9 354.3 355.7 357.5 357.7 -9999 -9999 -9999 -9999 -9999 -9999 -9999 -9999 -9999 -9999 -9999 -9999 -9999 -9999 -9999 -9999 -9999 -9999 -9999 -9999 -9999 -9999 -9999 -9999 -9999 -9999 -9999 -9999 -9999 -9999 -9999 -9999 -9999 -9999 -9999 -9999 -9999 -9999 -9999 -9999 -9999 -9999 -9999 -9999 -9999 -9999 -9999 -9999 -9999 -9999 -9999 -9999 -9999 -9999 -9999 -9999 -9999 -9999 -9999 -9999 -9999 -9999 -9999 -9999 -9999 -9999 -9999 -9999 -9999 -9999 -9999 -9999 
-9999 -9999 -9999 -9999 358.1 357.1 355.4 356.5 -9999 -9999 -9999 -9999 -9999 -9999 -9999 -9999 -9999 -9999 -9999 -9999 -9999 -9999 -9999 -9999 -9999 -9999 -9999 -9999 -9999 -9999 -9999 -9999 -9999 -9999 -9999 -9999 -9999 -9999 -9999 -9999 -9999 -9999 -9999 -9999 -9999 -9999 -9999 -9999 -9999 -9999 -9999 -9999 -9999 -9999 -9999 -9999 -9999 -9999 -9999 -9999 -9999 -9999 -9999 -9999 -9999 -9999 -9999 -9999 -9999 -9999 -9999 -9999 -9999 -9999 -9999 -9999 -9999 -9999 -9999 -9999 -9999 -9999 
-9999 -9999 -9999 362.0 360.8 359.0 357.3 356.6 357.2 -9999 -9999 -9999 -9999 -9999 -9999 -9999 -9999 -9999 -9999 -9999 -9999 -9999 -9999 -9999 -9999 -9999 -9999 -9999 -9999 -9999 -9999 -9999 -9999 -9999 -9999 -9999 -9999 -9999 -9999 -9999 -9999 -9999 -9999 -9999 -9999 -9999 -9999 -9999 -9999 -9999 -9999 -9999 -9999 -9999 -9999 -9999 -9999 -9999 -9999 -9999 -9999 -9999 -9999 -9999 -9999 -9999 -9999 -9999 -9999 -9999 -9999 -9999 -9999 -9999 -9999 -9999 -9999 -9999 -9999 -9999 -9999 -9999 
-9999 -9999 -9999 365.1 363.1 361.7 360.3 -9999 -9999 -9999 -9999 -9999 -9999 -9999 -9999 -9999 -9999 -9999 -9999 -9999 -9999 -9999 -9999 -9999 -9999 -9999 -9999 -9999 -9999 -9999 -9999 -9999 -9999 -9999 -9999 -9999 -9999 -9999 -9999 -9999 -9999 -9999 -9999 -9999 -9999 -9999 -9999 -9999 -9999 -9999 -9999 -9999 -9999 -9999 -9999 -9999 -9999 -9999 -9999 -9999 -9999 -9999 -9999 -9999 -9999 -9999 -9999 -9999 -9999 -9999 -9999 -9999 -9999 -9999 -9999 -9999 -9999 -9999 -9999 -9999 -9999 -9999 
-9999 -9999 -9999 366.4 366.0 364.5 -9999 -9999 -9999 -9999 -9999 -9999 -9999 -9999 -9999 -9999 -9999 -9999 -9999 -9999 -9999 -9999 -9999 -9999 -9999 -9999 -9999 -9999 -9999 -9999 -9999 -9999 -9999 -9999 -9999 -9999 -9999 -9999 -9999 -9999 -9999 -9999 -9999 -9999 -9999 -9999 -9999 -9999 -9999 -9999 -9999 -9999 -9999 -9999 -9999 -9999 -9999 -9999 -9999 -9999 -9999 -9999 -9999 -9999 -9999 -9999 -9999 -9999 -9999 -9999 -9999 -9999 -9999 -9999 -9999 -9999 -9999 -9999 -9999 -9999 -9999 -9999 
-9999 -9999 371.4 -9999 -9999 -9999 -9999 -9999 -9999 -9999 -9999 -9999 -9999 -9999 -9999 -9999 -9999 -9999 -9999 -9999 -9999 -9999 -9999 -9999 -9999 -9999 -9999 -9999 -9999 -9999 -9999 -9999 -9999 -9999 -9999 -9999 -9999 -9999 -9999 -9999 -9999 -9999 -9999 -9999 -9999 -9999 -9999 -9999 -9999 -9999 -9999 -9999 -9999 -9999 -9999 -9999 -9999 -9999 -9999 -9999 -9999 -9999 -9999 -9999 -9999 -9999 -9999 -9999 -9999 -9999 -9999 -9999 -9999 -9999 -9999 -9999 -9999 -9999 -9999 -9999 -9999 -9999 
-9999 375.6 -9999 -9999 -9999 -9999 -9999 -9999 -9999 -9999 -9999 -9999 -9999 -9999 -9999 -9999 -9999 -9999 -9999 -9999 -9999 -9999 -9999 -9999 -9999 -9999 -9999 -9999 -9999 -9999 -9999 -9999 -9999 -9999 -9999 -9999 -9999 -9999 -9999 -9999 -9999 -9999 -9999 -9999 -9999 -9999 -9999 -9999 -9999 -9999 -9999 -9999 -9999 -9999 -9999 -9999 -9999 -9999 -9999 -9999 -9999 -9999 -9999 -9999 -9999 -9999 -9999 -9999 -9999 -9999 -9999 -9999 -9999 -9999 -9999 -9999 -9999 -9999 -9999 -9999 -9999 -9999 

